Icons_UI/backup/bcpst original/s.svg

<svg xmlns="http://www.w3.org/2000/svg" viewBox="0 0 690 690">
  <g transform="translate(-2737, -1107)">
  <g fill-rule="evenodd">
    <path fill="#ccd6dd" d="m3015 1383 209.99-210L3359 1307.02 3149 1517Z"/>
    <path fill="#68e090" d="M2890.85 1767.94c-107.96-7.7-127.23-83.65-124.63-124.73 6.2-97.78 300.6-319.21 300.6-319.21l241.18 37.22c.02 0-335.05 412.58-417.15 406.72"/>
    <path fill="#00b050" d="M3357.6 1176.4c-56.26-56.26-119.84-83.92-141.99-61.75-.25.25-.42.6-.65.85-.12.11-.29.15-.41.27l-435.37 435.37c-27.2 27.19-42.18 63.36-42.18 101.85 0 38.46 14.98 74.63 42.18 101.83 27.22 27.21 63.39 42.18 101.85 42.18 38.48 0 74.64-14.97 101.83-42.16l435.37-435.37c.14-.14.18-.31.29-.44.25-.24.58-.39.83-.64 22.17-22.15-5.49-85.73-61.75-141.99m-415.57 537.59c-16.29 16.29-37.94 25.25-60.98 25.25-23.03 0-44.7-8.98-61-25.27-16.29-16.3-25.27-37.95-25.27-61 0-23.04 8.98-44.69 25.25-60.98l404.4-404.38c11.98 22.03 30.05 46.11 52.95 69.03 22.9 22.9 47 40.97 69.03 52.95z"/>
    <path fill="#17bf63" d="M3296.95 1358.46c-1.11 7.31-50.52 14.47-109.45 6.61-58.91-7.86-105.44-23.56-103.92-35.06 1.54-11.51 50.53-14.47 109.46-6.61s105.68 23.58 103.91 35.06m-353.03 194.67c-5.97 5.97-15.64 5.97-21.6 0-5.97-5.98-5.97-15.67 0-21.64 5.96-5.97 15.63-5.97 21.6 0 5.96 5.97 5.96 15.66 0 21.64m63.79 50.38c-9.75 9.77-25.54 9.75-35.29 0-9.73-9.75-9.73-25.59 0-35.34 9.75-9.76 25.54-9.74 35.27 0 9.75 9.75 9.77 25.57.02 35.34m32.25-102.58c-9.15 9.17-24.04 9.17-33.19 0-9.16-9.17-9.16-24.07 0-33.26 9.15-9.17 24.02-9.19 33.17 0 9.2 9.19 9.2 24.09.02 33.26m-132.09 170.67c-11.17 11.2-29.31 11.2-40.48 0-11.2-11.21-11.18-29.36 0-40.55 11.17-11.2 29.29-11.2 40.48 0 11.18 11.19 11.2 29.34 0 40.55m219.18-176.45c-7.94 7.96-20.83 7.96-28.77 0-7.95-7.96-7.93-20.87.02-28.82 7.96-7.98 20.83-7.98 28.77-.02 7.94 7.97 7.94 20.86-.02 28.84m-23.21-82.62c-5.2 5.2-13.62 5.2-18.83 0-5.2-5.2-5.2-13.64 0-18.86 5.19-5.21 13.61-5.23 18.83 0 5.19 5.22 5.19 13.66 0 18.86"/>
    <path fill="#ccd6dd" d="M3312.17 1221.94c-36.44-36.44-58.77-73.2-49.87-82.1s45.66 13.42 82.11 49.86c36.44 36.45 58.76 73.2 49.86 82.11-8.9 8.9-45.66-13.43-82.1-49.87"/>
  </g>
  </g>
</svg>

<svg width="690" height="690" xmlns="http://www.w3.org/2000/svg" xmlns:xlink="http://www.w3.org/1999/xlink" xml:space="preserve" overflow="hidden"><defs><clipPath id="clip0"><rect x="2737" y="1107" width="690" height="690"/></clipPath></defs><g clip-path="url(#clip0)" transform="translate(-2737 -1107)"><path d="M3015 1383 3224.99 1173 3359 1307.02 3149 1517Z" fill="#CCD6DD" fill-rule="evenodd"/><path d="M2890.85 1767.94C2782.89 1760.24 2763.62 1684.29 2766.22 1643.21 2772.42 1545.43 3066.82 1324 3066.82 1324L3308 1361.22C3308.02 1361.22 2972.95 1773.8 2890.85 1767.94Z" fill="#68E090" fill-rule="evenodd"/><path d="M3357.6 1176.4C3301.34 1120.14 3237.76 1092.48 3215.61 1114.65 3215.36 1114.9 3215.19 1115.25 3214.96 1115.5 3214.84 1115.61 3214.67 1115.65 3214.55 1115.77L2779.18 1551.14C2751.98 1578.33 2737 1614.5 2737 1652.99 2737 1691.45 2751.98 1727.62 2779.18 1754.82 2806.4 1782.03 2842.57 1797 2881.03 1797 2919.51 1797 2955.67 1782.03 2982.86 1754.84L3418.23 1319.47C3418.37 1319.33 3418.41 1319.16 3418.52 1319.03 3418.77 1318.79 3419.1 1318.64 3419.35 1318.39 3441.52 1296.24 3413.86 1232.66 3357.6 1176.4ZM2942.03 1713.99C2925.74 1730.28 2904.09 1739.24 2881.05 1739.24 2858.02 1739.24 2836.35 1730.26 2820.05 1713.97 2803.76 1697.67 2794.78 1676.02 2794.78 1652.97 2794.78 1629.93 2803.76 1608.28 2820.03 1591.99L3224.43 1187.61C3236.41 1209.64 3254.48 1233.72 3277.38 1256.64 3300.28 1279.54 3324.38 1297.61 3346.41 1309.59L2942.03 1713.99Z" fill="#00B050" fill-rule="evenodd"/><path d="M3296.95 1358.46C3295.84 1365.77 3246.43 1372.93 3187.5 1365.07 3128.59 1357.21 3082.06 1341.51 3083.58 1330.01 3085.12 1318.5 3134.11 1315.54 3193.04 1323.4 3251.97 1331.26 3298.72 1346.98 3296.95 1358.46ZM2943.92 1553.13C2937.95 1559.1 2928.28 1559.1 2922.32 1553.13 2916.35 1547.15 2916.35 1537.46 2922.32 1531.49 2928.28 1525.52 2937.95 1525.52 2943.92 1531.49 2949.88 1537.46 2949.88 1547.15 2943.92 1553.13ZM3007.71 1603.51C2997.96 1613.28 2982.17 1613.26 2972.42 1603.51 2962.69 1593.76 2962.69 1577.92 2972.42 1568.17 2982.17 1558.41 2997.96 1558.43 3007.69 1568.17 3017.44 1577.92 3017.46 1593.74 3007.71 1603.51ZM3039.96 1500.93C3030.81 1510.1 3015.92 1510.1 3006.77 1500.93 2997.61 1491.76 2997.61 1476.86 3006.77 1467.67 3015.92 1458.5 3030.79 1458.48 3039.94 1467.67 3049.14 1476.86 3049.14 1491.76 3039.96 1500.93ZM2907.87 1671.6C2896.7 1682.8 2878.56 1682.8 2867.39 1671.6 2856.19 1660.39 2856.21 1642.24 2867.39 1631.05 2878.56 1619.85 2896.68 1619.85 2907.87 1631.05 2919.05 1642.24 2919.07 1660.39 2907.87 1671.6ZM3127.05 1495.15C3119.11 1503.11 3106.22 1503.11 3098.28 1495.15 3090.33 1487.19 3090.35 1474.28 3098.3 1466.33 3106.26 1458.35 3119.13 1458.35 3127.07 1466.31 3135.01 1474.28 3135.01 1487.17 3127.05 1495.15ZM3103.84 1412.53C3098.64 1417.73 3090.22 1417.73 3085.01 1412.53 3079.81 1407.33 3079.81 1398.89 3085.01 1393.67 3090.2 1388.46 3098.62 1388.44 3103.84 1393.67 3109.03 1398.89 3109.03 1407.33 3103.84 1412.53Z" fill="#17BF63" fill-rule="evenodd"/><path d="M3312.17 1221.94C3275.73 1185.5 3253.4 1148.74 3262.3 1139.84 3271.2 1130.94 3307.96 1153.26 3344.41 1189.7 3380.85 1226.15 3403.17 1262.9 3394.27 1271.81 3385.37 1280.71 3348.61 1258.38 3312.17 1221.94Z" fill="#CCD6DD" fill-rule="evenodd"/></g></svg>
